icons/mobile/24/svg/arrow-trending-down-24.svg

<svg width="24" height="24" viewBox="0 0 24 24" fill="none" xmlns="http://www.w3.org/2000/svg">
<path d="M21.2504 17.6007C21.6642 17.6005 22.0004 17.2646 22.0004 16.8507V12.3097C22.0004 11.6388 21.1863 11.3048 20.7152 11.7833L19.1312 13.3956L15.223 9.48645C14.134 8.40051 12.2416 8.39947 11.1566 9.48645L10.2357 10.4064C9.79772 10.8444 9.08092 10.8434 8.64392 10.4064L4.49353 6.25598C4.15154 5.91404 3.59822 5.91501 3.25623 6.25696C2.91425 6.59894 2.91428 7.15226 3.25623 7.49426L7.40662 11.6456C8.52462 12.7636 10.355 12.7636 11.473 11.6456L12.3939 10.7247C12.8189 10.2988 13.5607 10.2988 13.9847 10.7247L17.9037 14.6447L16.2533 16.3243C15.7873 16.7983 16.1235 17.6007 16.7885 17.6007H21.2504Z" fill="black"/>
</svg>

<!-- This Source Code Form is subject to the terms of the Mozilla Public
   - License, v. 2.0. If a copy of the MPL was not distributed with this
   - file, You can obtain one at http://mozilla.org/MPL/2.0/. -->
<svg xmlns="http://www.w3.org/2000/svg" width="24" height="24" fill="none" viewBox="0 0 24 24">
    <path fill="#000" d="M21.25 17.6a.75.75 0 0 0 .75-.75v-4.54a.75.75 0 0 0-1.285-.527l-1.584 1.613-3.908-3.91c-1.089-1.085-2.981-1.087-4.066 0l-.921.92a1.13 1.13 0 0 1-1.592 0l-4.15-4.15a.874.874 0 1 0-1.238 1.238l4.15 4.152a2.884 2.884 0 0 0 4.067 0l.92-.921a1.15 1.15 0 0 1 1.592 0l3.919 3.92-1.65 1.68a.75.75 0 0 0 .534 1.276z" />
</svg>
